;FLAVOR:Marlin
;TIME:375.429
;Filament used:0.312447m
;Layer height:0.2
;MINX:96.667
;MINY:96.73
;MINZ:0.2
;MAXX:123.344
;MAXY:123.27
;MAXZ:9
;OuterWall Time:124.589
;InnerWall Time:81.0799
;Skin Time:84.4753
;Support Time:0
;SkirtBrim Time:0
;Infill Time:22.7953
;Support Infills Time:0
;Combing Time:24.4386
;Retraction Time:38.0505
;PrimeTower Time:0

;
;;;;;;;;;;;;;;;;;;;;;;;;;;;;;;;;;;;;;;;;;;;;;;;;;;;;;;;;;;;;;;;;;;;;;;;;;;;;
;Creality Print GCode Generated by CXEngine
;CRSLICE_GIT_HASH:d90fa71
;Creality Print Version : V4.3.8.6674
;CXEngine Release Time:2023-10-16 18:06:53
;Gcode Generated Time:2025-02-18 11:21:09
;----------Machine Config--------------
;Machine Name:Ender-3 V3 SE
;Machine Height:250
;Machine Width:220
;Machine Depth:220
;Material Type:PLA
;Material Name:CR-PLA_1.75
;Number of Extruders:1
;ExtruderParams[0] Nozzle Diameter:1000
;----------Profile Config---------------
;Wall Thickness:0.8
;Top/Bottom Thickness:0.8
;Out Wall Line Width:0.42
;Inner Wall Line Width:0.45
;Inital Height:200
;Wall Line Count:2
;Infill Line Distance:8
;Infill Pattern:grid
;Infill Sparse Density:10
;Infill Wipe Distance:0
;Print Temperature:190
;Bed Temperature:60
;Support Enable:false
;Support Density:15
;Support Angle:60
;Adhesion Type:autobrim
;machine is belt:false
;machine belt offset:10
;machine belt offset Y:0
;Raft Base Line Spacing:1.6
;Wait Heatup Sync:true
;Enable Ironing:false
;Material Type:PLA
;Max volumetric speed:20
;Material Diameter:1.75
;Material Density:1.24
;Filament Cost:20
;Filament Weight:1000
;Preview Img Type:png
;Screen Size:Sermoon D3
;----------Shell Config----------------
;Outer Wall Wipe Distance:200
;Outer Inset First:false
;Infill Before Walls:false
;Infill Overlap:0.04
;Fill Gaps Between Walls:everywhere
;Minimum Infill Area:15
;Top Surface Skin Layer:0
;Top Layers:4
;Z Seam Alignment:sharpest_corner
;Seam Corner Preference:z_seam_corner_inner
;Z Seam X:110
;Z Seam Y:220
;Horizontal Expansion:0
;Top/Bottom Pattern:zigzag
;Ironing Pattern:zigzag
;Vase Model:false
;----------Support Config----------------
;Support Type:everywhere
;Support Pattern:zigzag
;Support Infill Layer Thickness:0.15
;Minimum Support Area:1
;Enable Support Roof:true
;Support Roof Thickness:0.8
;Support Roof Pattern:lines
;Connect Support Lines:0
;Connect Support ZigZags:1
;Minimum Support X/Y Distance:0.2
;Support Line Distance:2.67
; ---------PrintSpeed & Travel----------
;Enable Print Cool:true
;Avoid Printed Parts Traveling:true
;Enable Retraction:true
;Retraction Distance:0.8
;Retraction Speed:25
;Retraction Prime Speed:25
;Maximum Retraction Count:100
;Minimum Extrusion Distance Window:0.8
;Z Hop When Retracted:true
;Z Hop Height:0.2
;Retract Before Outer Wall:true

;Outer Wall Speed:60
;Inner Wall Speed:90
;Infill Speed:180
;Top/Bottom Speed:50
;Travel Speed:150
;Initial Layer Speed:30
;Skirt/Brim Speed:25
;Prime Tower Speed:60
;Outer Wall Acceleration:1000
;Inner Wall Acceleration:2000
;Infill Acceleration:2500
;Top/Bottom Acceleration:2500
;Travel Acceleration:2500
;Initial Layer Print Acceleration:500
;Initial Layer Travel Acceleration:500
;Skirt/Brim Acceleration:500
;Combing Mode:no_outer_surfaces
; --------SpecialModel&Mesh Fixes--------
;Union Overlapping Volum:true
;Remove All Holes:false
;Maximum Travel Resolution:0.25
;Maximum Deviation:0.05
;Maximum Model Angle:0.872665
;IS Mold Print:false
;Make Overhang Printable:false
;Enable Coasting:false
;Coasting Volumes:0.064
;Coasting Speed:0.9
;Raft AirGap:0.25
;Layer0 ZOverLap:0.13
;Adaptive Layers:0
;---------------------End of Head--------------------------
M140 S60
M105
M190 S60
M104 S190
M82 ;absolute extrusion mode
M220 S100 ;Reset Feedrate
M221 S100 ;Reset Flowrate

G28 ;Home

G92 E0 ;Reset Extruder
G1 Z2.0 F3000 ;Move Z Axis up
G1 X-2.1 Y20 Z0.28 F5000.0 ;Move to start position
M109 S190.000000
G1 X-2.1 Y145.0 Z0.28 F1500.0 E15 ;Draw the first line
G1 X-2.4 Y145.0 Z0.28 F5000.0 ;Move to side a little
G1 X-2.4 Y20 Z0.28 F1500.0 E30 ;Draw the second line
G92 E0  ;Reset Extruder
G1 E-1.0000 F1800 ;Retract a bit
G1 Z2.0 F3000 ;Move Z Axis up
G1 E0.0000 F1800 

G92 E0
G92 E0
G1 F1500 E-0.8
;LAYER_COUNT:44

;LAYER:0
M106 S0
M204 S500
;;retract;;
G1 F1500 E-0.56
G1 F1500 E-0.8
G1 F600 Z0.4
;MESH:0_0
G0 F4800 X96.688 Y102.496 Z0.4
;TYPE:WALL-OUTER
G1 F600 Z0.2
G1 F1500 E0
G1 F1800 X96.806 Y101.335 E0.04393
G1 X97.153 Y100.227 E0.08764
G1 X97.72 Y99.205 E0.13164
G1 X98.472 Y98.329 E0.17511
G1 X99.394 Y97.615 E0.21901
G1 X100.447 Y97.099 E0.26316
G1 X101.56 Y96.81 E0.30645
G1 X102.721 Y96.751 E0.35021
G1 X103.876 Y96.929 E0.39421
G1 X104.972 Y97.334 E0.4382
G1 X105.955 Y97.945 E0.48177
G1 X106.792 Y98.742 E0.52528
G1 X107.463 Y99.708 E0.56956
G1 X107.915 Y100.764 E0.6128
G1 X108.153 Y101.916 E0.65709
G1 X108.153 Y102.49 E0.6787
G1 X108.153 Y103.064 E0.70031
G1 X107.915 Y104.216 E0.74459
G1 X107.463 Y105.272 E0.78784
G1 X106.792 Y106.238 E0.83212
G1 X105.955 Y107.035 E0.87563
G1 X104.972 Y107.646 E0.9192
G1 X103.876 Y108.051 E0.96319
G1 X102.721 Y108.229 E1.00719
G1 X101.56 Y108.17 E1.05095
G1 X100.447 Y107.881 E1.09424
G1 X99.394 Y107.365 E1.13839
G1 X98.472 Y106.651 E1.18229
G1 X97.718 Y105.773 E1.22586
G1 X97.154 Y104.753 E1.26974
G1 X96.806 Y103.644 E1.3135
G1 X96.688 Y102.496 E1.35694
G0 F4800 X96.708 Y102.297
G0 X97.169 Y102.496
;TYPE:WALL-INNER
G1 F1800 X97.277 Y101.431 E1.401
G1 X97.596 Y100.416 E1.44479
G1 X98.115 Y99.479 E1.48888
G1 X98.803 Y98.678 E1.53234
G1 X99.648 Y98.023 E1.57635
G1 X100.614 Y97.55 E1.62062
G1 X101.633 Y97.285 E1.66395
G1 X102.697 Y97.231 E1.7078
G1 X103.755 Y97.394 E1.75187
G1 X104.761 Y97.766 E1.79601
G1 X105.66 Y98.325 E1.83958
G1 X106.426 Y99.055 E1.88314
G1 X107.042 Y99.941 E1.92755
G1 X107.457 Y100.908 E1.97086
G1 X107.675 Y101.964 E2.01524
G1 X107.675 Y102.49 E2.03689
G1 X107.675 Y103.016 E2.05854
G1 X107.457 Y104.072 E2.10292
G1 X107.042 Y105.039 E2.14624
G1 X106.426 Y105.925 E2.19065
G1 X105.66 Y106.655 E2.2342
G1 X104.761 Y107.214 E2.27778
G1 X103.755 Y107.586 E2.32192
G1 X102.697 Y107.749 E2.36598
G1 X101.633 Y107.695 E2.40983
G1 X100.614 Y107.43 E2.45317
G1 X99.648 Y106.957 E2.49744
G1 X98.803 Y106.302 E2.54144
G1 X98.113 Y105.499 E2.58502
G1 X97.596 Y104.563 E2.62903
G1 X97.277 Y103.547 E2.67286
G1 X97.169 Y102.496 E2.71635
;;retract;;
G1 F1500 E2.15635
G1 F2400 X97.571 Y100.537 E1.92835
G1 F1500 E1.91635
G0 F4800 X97.63 Y102.499
;TYPE:SKIN
G1 F1500 E2.71635
G1 F1800 X97.727 Y103.45 E2.75307
G1 X98.018 Y104.377 E2.7904
G1 X98.491 Y105.237 E2.8281
G1 X99.118 Y105.966 E2.86504
G1 X99.888 Y106.563 E2.90247
G1 X100.779 Y106.999 E2.94058
G1 X101.7 Y107.239 E2.97714
G1 X102.669 Y107.288 E3.01441
G1 X103.642 Y107.138 E3.05223
G1 X104.559 Y106.8 E3.08977
G1 X105.378 Y106.292 E3.1268
G1 X106.074 Y105.628 E3.16375
G1 X106.642 Y104.812 E3.20194
G1 X107.014 Y103.939 E3.2384
G1 X107.216 Y102.963 E3.27669
G1 X107.216 Y102.487 E3.29497
G1 X107.216 Y102.012 E3.31322
G1 X107.016 Y101.046 E3.35112
G1 X106.642 Y100.17 E3.38771
G1 X106.074 Y99.352 E3.42596
G1 X105.378 Y98.688 E3.46292
G1 X104.557 Y98.179 E3.50002
G1 X103.64 Y97.842 E3.53755
G1 X102.67 Y97.692 E3.57526
G1 X101.7 Y97.741 E3.61257
G1 X100.776 Y97.981 E3.64924
G1 X99.888 Y98.417 E3.68725
G1 X99.118 Y99.014 E3.72468
G1 X98.495 Y99.74 E3.76143
G1 X98.017 Y100.603 E3.79933
G1 X97.728 Y101.521 E3.8363
G1 X97.63 Y102.499 E3.87406
G0 F4800 X97.321 Y102.53
G0 X97.481 Y103.505
G0 X97.788 Y104.48
G0 X98.285 Y105.379
G0 X98.948 Y106.15
G0 X99.604 Y106.659
G0 X100.778 Y107.319
G0 X100.915 Y106.795
G1 F1800 X98.151 Y104.031 E4.02422
G1 X97.928 Y103.155
G1 X101.784 Y107.011 E4.2337
G1 X102.471 Y107.045
G1 X97.867 Y102.441 E4.48383
G1 X97.927 Y101.847
G1 X103.07 Y106.99 E4.76324
G1 X103.627 Y106.894
G1 X98.038 Y101.305 E5.06687
G1 X98.194 Y100.807
G1 X104.105 Y106.719 E5.38803
G1 X104.564 Y106.524
G1 X98.409 Y100.369 E5.72242
G1 X98.642 Y99.948
G1 X104.967 Y106.274 E6.06607
G1 X105.347 Y106
G1 X98.931 Y99.584 E6.41463
G1 X99.233 Y99.233
G1 X105.681 Y105.681 E6.76494
G1 X105.992 Y105.339
G1 X99.592 Y98.939 E7.11264
G1 X99.96 Y98.654
G1 X106.261 Y104.954 E7.45493
G1 X106.505 Y104.545
G1 X100.388 Y98.428 E7.78725
G1 X100.827 Y98.213
G1 X106.7 Y104.086 E8.10632
G1 X106.851 Y103.584
G1 X101.339 Y98.072 E8.40577
G1 X101.882 Y97.962
G1 X106.963 Y103.043 E8.68181
G1 X106.984 Y102.41
G1 X102.505 Y97.931 E8.92514
G1 X103.241 Y98.014
G1 X106.912 Y101.685 E9.12458
G1 X106.644 Y100.764
G1 X104.16 Y98.28 E9.25953
;;retract;;
G1 F1500 E8.69953
G1 F2400 X105.574 Y99.694
G1 X104.16 Y98.28 E8.47153
G1 F1500 E8.45953
G1 F600 Z0.4
;MESH:0_1
G0 F4800 X111.858 Y117.516 Z0.4
;TYPE:WALL-OUTER
G1 F600 Z0.2
G1 F1500 E9.25953
G1 F1800 X111.976 Y116.355 E9.30346
G1 X112.323 Y115.247 E9.34717
G1 X112.89 Y114.225 E9.39117
G1 X113.642 Y113.349 E9.43464
G1 X114.564 Y112.635 E9.47854
G1 X115.617 Y112.119 E9.52269
G1 X116.73 Y111.83 E9.56598
G1 X117.891 Y111.771 E9.60974
G1 X119.046 Y111.949 E9.65374
G1 X120.142 Y112.354 E9.69773
G1 X121.125 Y112.965 E9.7413
G1 X121.962 Y113.762 E9.78481
G1 X122.633 Y114.728 E9.82909
G1 X123.085 Y115.784 E9.87233
G1 X123.323 Y116.936 E9.91662
G1 X123.323 Y117.51 E9.93823
G1 X123.323 Y118.084 E9.95984
G1 X123.085 Y119.236 E10.00412
G1 X122.633 Y120.292 E10.04737
G1 X121.962 Y121.258 E10.09165
G1 X121.125 Y122.055 E10.13516
G1 X120.142 Y122.666 E10.17873
G1 X119.046 Y123.071 E10.22272
G1 X117.891 Y123.249 E10.26672
G1 X116.73 Y123.19 E10.31048
G1 X115.617 Y122.901 E10.35377
G1 X114.564 Y122.385 E10.39792
G1 X113.642 Y121.671 E10.44182
G1 X112.888 Y120.793 E10.48539
G1 X112.324 Y119.773 E10.52927
G1 X111.976 Y118.664 E10.57303
G1 X111.858 Y117.516 E10.61647
G0 F4800 X111.878 Y117.317
G0 X112.339 Y117.516
;TYPE:WALL-INNER
G1 F1800 X112.447 Y116.451 E10.66053
G1 X112.766 Y115.436 E10.70432
G1 X113.285 Y114.499 E10.74841
G1 X113.973 Y113.698 E10.79187
G1 X114.818 Y113.043 E10.83588
G1 X115.784 Y112.57 E10.88015
G1 X116.803 Y112.305 E10.92348
G1 X117.867 Y112.251 E10.96733
G1 X118.925 Y112.414 E11.01139
G1 X119.931 Y112.786 E11.05554
G1 X120.83 Y113.345 E11.09911
G1 X121.596 Y114.075 E11.14267
G1 X122.212 Y114.961 E11.18708
G1 X122.627 Y115.928 E11.23039
G1 X122.845 Y116.984 E11.27477
G1 X122.845 Y117.51 E11.29642
G1 X122.845 Y118.036 E11.31807
G1 X122.627 Y119.092 E11.36245
G1 X122.212 Y120.059 E11.40577
G1 X121.596 Y120.945 E11.45018
G1 X120.83 Y121.675 E11.49373
G1 X119.931 Y122.234 E11.53731
G1 X118.925 Y122.606 E11.58145
G1 X117.867 Y122.769 E11.62551
G1 X116.803 Y122.715 E11.66936
G1 X115.784 Y122.45 E11.7127
G1 X114.818 Y121.977 E11.75697
G1 X113.973 Y121.322 E11.80097
G1 X113.283 Y120.519 E11.84455
G1 X112.766 Y119.583 E11.88856
G1 X112.447 Y118.567 E11.93239
G1 X112.339 Y117.516 E11.97588
;;retract;;
G1 F1500 E11.41588
G1 F2400 X112.741 Y115.557 E11.18788
G1 F1500 E11.17588
G0 F4800 X112.8 Y117.519
;TYPE:SKIN
G1 F1500 E11.97588
G1 F1800 X112.897 Y118.47 E12.0126
G1 X113.188 Y119.397 E12.04993
G1 X113.661 Y120.257 E12.08763
G1 X114.288 Y120.986 E12.12457
G1 X115.058 Y121.583 E12.162
G1 X115.949 Y122.019 E12.2001
G1 X116.87 Y122.259 E12.23667
G1 X117.839 Y122.308 E12.27394
G1 X118.812 Y122.158 E12.31176
G1 X119.729 Y121.82 E12.3493
G1 X120.548 Y121.312 E12.38633
G1 X121.244 Y120.648 E12.42328
G1 X121.812 Y119.832 E12.46147
G1 X122.184 Y118.959 E12.49793
G1 X122.386 Y117.983 E12.53621
G1 X122.386 Y117.507 E12.5545
G1 X122.386 Y117.032 E12.57275
G1 X122.186 Y116.066 E12.61064
G1 X121.812 Y115.19 E12.64724
G1 X121.244 Y114.372 E12.68549
G1 X120.548 Y113.708 E12.72244
G1 X119.727 Y113.199 E12.75955
G1 X118.81 Y112.862 E12.79708
G1 X117.84 Y112.712 E12.83479
G1 X116.87 Y112.761 E12.8721
G1 X115.946 Y113.001 E12.90877
G1 X115.058 Y113.437 E12.94678
G1 X114.288 Y114.034 E12.98421
G1 X113.665 Y114.76 E13.02096
G1 X113.187 Y115.623 E13.05885
G1 X112.898 Y116.541 E13.09583
G1 X112.8 Y117.519 E13.13359
G0 F4800 X112.491 Y117.55
G0 X112.651 Y118.525
G0 X112.958 Y119.5
G0 X113.455 Y120.399
G0 X114.118 Y121.17
G0 X114.577 Y121.526
G0 X115.576 Y122.183
G0 X115.816 Y121.696
G1 F1800 X113.389 Y119.269 E13.26544
G1 X113.115 Y118.342
G1 X116.765 Y121.992 E13.46373
G1 X117.484 Y122.057
G1 X113.042 Y117.615 E13.70506
G1 X113.083 Y117.003
G1 X118.11 Y122.031 E13.97819
G1 X118.676 Y121.943
G1 X113.171 Y116.438 E14.27726
G1 X113.328 Y115.941
G1 X119.166 Y121.78 E14.59446
G1 X119.641 Y121.601
G1 X113.525 Y115.486 E14.9267
G1 X113.758 Y115.065
G1 X120.044 Y121.351 E15.2682
G1 X120.441 Y121.094
G1 X114.031 Y114.684 E15.61644
G1 X114.333 Y114.333
G1 X120.775 Y120.775 E15.96642
G1 X121.101 Y120.447
G1 X114.677 Y114.024 E16.31539
G1 X115.045 Y113.738
G1 X121.369 Y120.062 E16.65896
G1 X121.629 Y119.669
G1 X115.457 Y113.497 E16.99427
G1 X115.896 Y113.282
G1 X121.825 Y119.211 E17.31638
G1 X121.995 Y118.728
G1 X116.39 Y113.123 E17.62089
G1 X116.91 Y112.99
G1 X122.107 Y118.187 E17.90323
G1 X122.154 Y117.581
G1 X117.532 Y112.958 E18.15436
G1 X118.233 Y113.006
G1 X122.122 Y116.895 E18.36564
G1 X121.927 Y116.046
G1 X119.093 Y113.212 E18.5196
G0 F4800 X119.281 Y112.705
G0 X120.268 Y113.241
G0 X121.22 Y113.92
G0 X120.845 Y114.312
G1 F1800 X121.089 Y114.555 E18.53283
;;retract;;
G1 F1500 E17.97283
G1 F1500 E17.73283
G1 F600 Z0.4
;MESH:NONMESH
G0 F4800 X96.667 Y102.494 Z0.4
;TIME_ELAPSED:24.632531

;LAYER:1
M106 S127.5
M204 S750
;TYPE:WALL-OUTER
;MESH:0_0
G1 F600 Z0.4
G1 F1500 E18.53283
G1 F2700 X96.785 Y101.331 E18.57284
G1 X97.134 Y100.218 E18.61276
G1 X97.702 Y99.193 E18.65287
G1 X98.458 Y98.314 E18.69255
G1 X99.383 Y97.597 E18.7326
G1 X100.439 Y97.079 E18.77286
G1 X101.557 Y96.789 E18.81238
G1 X102.722 Y96.73 E18.85231
G1 X103.881 Y96.908 E18.89244
G1 X104.981 Y97.315 E18.93258
G1 X105.968 Y97.928 E18.97235
G1 X106.808 Y98.728 E19.01205
G1 X107.481 Y99.697 E19.05242
G1 X107.936 Y100.757 E19.0919
G1 X108.174 Y101.914 E19.13233
G1 X108.174 Y102.49 E19.15204
G1 X108.174 Y103.067 E19.17179
G1 X107.936 Y104.223 E19.21218
G1 X107.481 Y105.283 E19.25166
G1 X106.808 Y106.252 E19.29204
G1 X105.968 Y107.052 E19.33174
G1 X104.981 Y107.665 E19.37151
G1 X103.881 Y108.072 E19.41165
G1 X102.722 Y108.25 E19.45178
G1 X101.557 Y108.191 E19.4917
G1 X100.439 Y107.901 E19.53123
G1 X99.383 Y107.383 E19.57149
G1 X98.457 Y106.666 E19.61157
G1 X97.7 Y105.785 E19.65132
G1 X97.134 Y104.761 E19.69137
G1 X96.785 Y103.648 E19.73129
G1 X96.667 Y102.496 E19.77092
G1 X96.667 Y102.494 E19.77099
M204 S1500
G0 F6900 X96.687 Y102.295
G0 X97.104 Y102.496
M204 S1250
;TYPE:WALL-INNER
G1 F3600 X97.213 Y101.418 E19.81153
G1 X97.536 Y100.391 E19.85181
G1 X98.061 Y99.442 E19.89239
G1 X98.759 Y98.631 E19.93243
G1 X99.614 Y97.968 E19.97292
G1 X100.591 Y97.489 E20.01363
G1 X101.623 Y97.221 E20.05353
G1 X102.7 Y97.167 E20.09388
G1 X103.772 Y97.332 E20.13446
G1 X104.789 Y97.707 E20.17502
G1 X105.7 Y98.274 E20.21517
G1 X106.476 Y99.013 E20.25526
G1 X107.099 Y99.909 E20.2961
G1 X107.518 Y100.888 E20.33594
G1 X107.739 Y101.958 E20.37683
G1 X107.739 Y102.49 E20.39673
G1 X107.739 Y103.022 E20.41664
G1 X107.518 Y104.092 E20.45752
G1 X107.099 Y105.071 E20.49737
G1 X106.476 Y105.967 E20.5382
G1 X105.7 Y106.706 E20.5783
G1 X104.789 Y107.273 E20.61845
G1 X103.772 Y107.648 E20.65901
G1 X102.7 Y107.814 E20.6996
G1 X101.623 Y107.759 E20.73995
G1 X100.591 Y107.491 E20.77984
G1 X99.614 Y107.012 E20.82056
G1 X98.759 Y106.349 E20.86104
G1 X98.059 Y105.536 E20.90118
G1 X97.536 Y104.589 E20.94166
G1 X97.213 Y103.56 E20.98202
G1 X97.104 Y102.496 E21.02204
M204 S1500
;;retract;;
G1 F1500 E20.46204
G1 F3450 X97.506 Y100.537 E20.23404
G1 F1500 E20.22204
G0 F6900 X97.522 Y102.5
;TYPE:SKIN
G1 F1500 E21.02204
G1 F2400 X97.621 Y103.472 E21.05616
G1 X97.918 Y104.42 E21.09085
G1 X98.402 Y105.299 E21.1259
G1 X99.042 Y106.044 E21.1602
G1 X99.835 Y106.658 E21.19522
G1 X100.741 Y107.101 E21.23044
G1 X101.684 Y107.347 E21.26448
G1 X102.674 Y107.397 E21.29909
G1 X103.669 Y107.243 E21.33426
G1 X104.607 Y106.897 E21.36917
G1 X105.445 Y106.378 E21.4036
G1 X106.156 Y105.699 E21.43793
G1 X106.736 Y104.864 E21.47344
G1 X107.119 Y103.971 E21.50737
G1 X107.324 Y102.975 E21.54288
G1 X107.324 Y102.487 E21.55992
G1 X107.324 Y102 E21.57693
G1 X107.121 Y101.013 E21.61212
