;FLAVOR:Marlin
;TIME:4452.58
;Filament used:6.34534m
;Layer height:0.2
;MINX:65.23
;MINY:52.731
;MINZ:0.2
;MAXX:154.769
;MAXY:167.269
;MAXZ:10.4
;OuterWall Time:1052.92
;InnerWall Time:343.681
;Skin Time:2417.16
;Support Time:0
;SkirtBrim Time:0
;Infill Time:84.1712
;Support Infills Time:0
;Combing Time:225.415
;Retraction Time:329.237
;PrimeTower Time:0

;;;;;;;;;;;;;;;;;;;;;;;;;;;;;;;;;;;;;;;;;;;;;;;;;;;;;;;;;;;;;;;;;;;;;;;;;;;;
;Creality Print GCode Generated by CXEngine
;CRSLICE_GIT_HASH:d90fa71
;Creality Print Version : V4.3.8.6674
;CXEngine Release Time:2023-10-16 18:06:53
;Gcode Generated Time:2025-02-17 22:17:02
;----------Machine Config--------------
;Machine Name:Ender-3 V3 SE
;Machine Height:250
;Machine Width:220
;Machine Depth:220
;Material Type:PLA
;Material Name:CR-PLA_1.75
;Number of Extruders:1
;ExtruderParams[0] Nozzle Diameter:1000
;----------Profile Config---------------
;Wall Thickness:0.8
;Top/Bottom Thickness:0.8
;Out Wall Line Width:0.42
;Inner Wall Line Width:0.45
;Inital Height:200
;Wall Line Count:2
;Infill Line Distance:8
;Infill Pattern:grid
;Infill Sparse Density:10
;Infill Wipe Distance:0
;Print Temperature:190
;Bed Temperature:60
;Support Enable:false
;Support Density:15
;Support Angle:60
;Adhesion Type:autobrim
;machine is belt:false
;machine belt offset:10
;machine belt offset Y:0
;Raft Base Line Spacing:1.6
;Wait Heatup Sync:true
;Enable Ironing:false
;Material Type:PLA
;Max volumetric speed:20
;Material Diameter:1.75
;Material Density:1.24
;Filament Cost:20
;Filament Weight:1000
;Preview Img Type:png
;Screen Size:Sermoon D3
;----------Shell Config----------------
;Outer Wall Wipe Distance:200
;Outer Inset First:false
;Infill Before Walls:false
;Infill Overlap:0.04
;Fill Gaps Between Walls:everywhere
;Minimum Infill Area:15
;Top Surface Skin Layer:0
;Top Layers:4
;Z Seam Alignment:sharpest_corner
;Seam Corner Preference:z_seam_corner_inner
;Z Seam X:110
;Z Seam Y:220
;Horizontal Expansion:0
;Top/Bottom Pattern:zigzag
;Ironing Pattern:zigzag
;Vase Model:false
;----------Support Config----------------
;Support Type:everywhere
;Support Pattern:zigzag
;Support Infill Layer Thickness:0.15
;Minimum Support Area:1
;Enable Support Roof:true
;Support Roof Thickness:0.8
;Support Roof Pattern:lines
;Connect Support Lines:0
;Connect Support ZigZags:1
;Minimum Support X/Y Distance:0.2
;Support Line Distance:2.67
; ---------PrintSpeed & Travel----------
;Enable Print Cool:true
;Avoid Printed Parts Traveling:true
;Enable Retraction:true
;Retraction Distance:0.8
;Retraction Speed:25
;Retraction Prime Speed:25
;Maximum Retraction Count:100
;Minimum Extrusion Distance Window:0.8
;Z Hop When Retracted:true
;Z Hop Height:0.2
;Retract Before Outer Wall:true

;Outer Wall Speed:60
;Inner Wall Speed:90
;Infill Speed:180
;Top/Bottom Speed:50
;Travel Speed:150
;Initial Layer Speed:30
;Skirt/Brim Speed:25
;Prime Tower Speed:60
;Outer Wall Acceleration:1000
;Inner Wall Acceleration:2000
;Infill Acceleration:2500
;Top/Bottom Acceleration:2500
;Travel Acceleration:2500
;Initial Layer Print Acceleration:500
;Initial Layer Travel Acceleration:500
;Skirt/Brim Acceleration:500
;Combing Mode:no_outer_surfaces
; --------SpecialModel&Mesh Fixes--------
;Union Overlapping Volum:true
;Remove All Holes:false
;Maximum Travel Resolution:0.25
;Maximum Deviation:0.05
;Maximum Model Angle:0.872665
;IS Mold Print:false
;Make Overhang Printable:false
;Enable Coasting:false
;Coasting Volumes:0.064
;Coasting Speed:0.9
;Raft AirGap:0.25
;Layer0 ZOverLap:0.13
;Adaptive Layers:0
;---------------------End of Head--------------------------
M140 S60
M105
M190 S60
M104 S190
M82 ;absolute extrusion mode
M220 S100 ;Reset Feedrate
M221 S100 ;Reset Flowrate

G28 ;Home

G92 E0 ;Reset Extruder
G1 Z2.0 F3000 ;Move Z Axis up
G1 X-2.1 Y20 Z0.28 F5000.0 ;Move to start position
M109 S190.000000
G1 X-2.1 Y145.0 Z0.28 F1500.0 E15 ;Draw the first line
G1 X-2.4 Y145.0 Z0.28 F5000.0 ;Move to side a little
G1 X-2.4 Y20 Z0.28 F1500.0 E30 ;Draw the second line
G92 E0  ;Reset Extruder
G1 E-1.0000 F1800 ;Retract a bit
G1 Z2.0 F3000 ;Move Z Axis up
G1 E0.0000 F1800 

G92 E0
G92 E0
G1 F1500 E-0.8
;LAYER_COUNT:51

;LAYER:0
M106 S0
M204 S500
;;retract;;
G1 F1500 E-0.56
G1 F1500 E-0.8
G1 F600 Z0.4
;MESH:0_0
G0 F4800 X65.252 Y54.105 Z0.4
;TYPE:WALL-OUTER
G1 F600 Z0.2
G1 F1500 E0
G1 F1800 X66.605 Y52.752 E0.07204
G1 X153.395 Y52.752 E3.33943
G1 X154.748 Y54.105 E3.41147
G1 X154.748 Y55.061 E3.44746
G1 X154.748 Y165.895 E7.62004
G1 X153.395 Y167.248 E7.69208
G1 X66.605 Y167.248 E10.95947
G1 X65.252 Y165.895 E11.03151
G1 X65.252 Y54.105 E15.24008
G0 F4800 X65.393 Y53.964
G0 X65.731 Y54.303
;TYPE:WALL-INNER
G1 F1800 X66.803 Y53.231 E15.30248
G1 X153.197 Y53.231 E18.85841
G1 X154.27 Y54.303 E18.92084
G1 X154.27 Y55.061 E18.95203
G1 X154.27 Y165.697 E23.50575
G1 X153.197 Y166.77 E23.56821
G1 X66.803 Y166.77 E27.12413
G1 X65.731 Y165.697 E27.18656
G1 X65.731 Y54.303 E31.77147
;;retract;;
G1 F1500 E31.21147
G1 F2400 X67.73 Y54.279 E30.98347
G1 F1500 E30.97147
G1 F600 Z0.4
G0 F4800 X75.748 Y65.002 Z0.4
;TYPE:WALL-OUTER
G1 F600 Z0.2
G1 F1500 E31.77147
G1 F1800 X75.286 Y64.939 E31.78903
G1 X74.871 Y64.769 E31.80591
G1 X74.514 Y64.493 E31.8229
G1 X74.234 Y64.131 E31.84013
G1 X74.058 Y63.707 E31.85741
G1 X73.998 Y63.251 E31.87473
G1 X74.056 Y62.795 E31.89203
G1 X74.234 Y62.37 E31.90938
G1 X74.507 Y62.014 E31.92627
G1 X74.87 Y61.734 E31.94353
G1 X75.296 Y61.558 E31.96088
G1 X75.75 Y61.498 E31.97812
G1 X76.205 Y61.556 E31.99539
G1 X76.626 Y61.732 E32.01257
G1 X76.984 Y62.005 E32.02952
G1 X77.005 Y62.029 E32.03072
G1 X77.269 Y62.37 E32.04695
G1 X77.444 Y62.795 E32.06425
G1 X77.502 Y63.249 E32.08149
G1 X77.448 Y63.683 E32.09795
G1 X77.268 Y64.13 E32.11609
G1 X76.995 Y64.486 E32.13298
G1 X76.63 Y64.769 E32.15037
G1 X76.205 Y64.944 E32.16767
G1 X75.748 Y65.002 E32.18501
G0 F4800 X75.55 Y64.975
G0 X75.771 Y65.484
;TYPE:WALL-INNER
G1 F1800 X75.17 Y65.407 E32.20995
G1 X74.608 Y65.172 E32.23503
G1 X74.155 Y64.815 E32.25877
G1 X73.821 Y64.372 E32.2816
G1 X73.59 Y63.836 E32.30562
G1 X73.517 Y63.223 E32.33103
G1 X73.6 Y62.647 E32.35499
G1 X73.813 Y62.129 E32.37804
G1 X74.165 Y61.671 E32.40181
G1 X74.628 Y61.314 E32.42588
G1 X75.168 Y61.09 E32.44994
G1 X75.75 Y61.014 E32.4741
G1 X76.328 Y61.09 E32.49809
G1 X76.888 Y61.325 E32.52309
G1 X77.318 Y61.663 E32.5456
G1 X77.384 Y61.736 E32.54965
G1 X77.685 Y62.126 E32.56993
G1 X77.911 Y62.672 E32.59425
G1 X77.981 Y63.249 E32.61817
G1 X77.912 Y63.826 E32.64209
G1 X77.685 Y64.373 E32.66647
G1 X77.336 Y64.828 E32.69007
G1 X76.874 Y65.185 E32.7141
G1 X76.328 Y65.411 E32.73842
G1 X75.771 Y65.484 E32.76155
;;retract;;
G1 F1500 E32.20155
G1 F2400 X74.608 Y65.172 E32.06429
G1 X74.155 Y64.815 E31.99863
G1 X74.023 Y64.64 E31.97355
G1 F1500 E31.96155
G1 F600 Z0.4
G0 F4800 X80.624 Y60.869 Z0.4
;TYPE:WALL-OUTER
G1 F600 Z0.2
G1 F1500 E32.76155
G1 F1800 X80.814 Y60.751 E32.76997
G1 X121.187 Y60.752 E34.28989
G1 X121.372 Y60.93 E34.29956
G1 X121.377 Y76.006 E34.86713
G1 X121.376 Y159.11 E37.99576
G1 X121.186 Y159.249 E38.00462
G1 X80.796 Y159.252 E39.52519
G1 X80.628 Y159.07 E39.53451
G1 X80.624 Y60.869 E43.2315
G0 F4800 X80.794 Y60.764
G0 X80.226 Y60.649
;TYPE:WALL-INNER
G1 F1800 X80.401 Y60.433 E43.24294
G1 X80.768 Y60.27 E43.25947
G1 X121.233 Y60.27 E44.92499
G1 X121.599 Y60.433 E44.94148
G1 X121.854 Y60.801 E44.9599
G1 X121.856 Y76.006 E45.58573
G1 X121.853 Y159.205 E49.01016
G1 X121.599 Y159.567 E49.02836
G1 X121.229 Y159.731 E49.04501
G1 X80.854 Y159.731 E50.70683
G1 X80.466 Y159.661 E50.72305
G1 X80.146 Y159.199 E50.74619
G1 X80.147 Y60.92 E54.79129
G1 X80.226 Y60.649 E54.80291
;;retract;;
G1 F1500 E54.24291
G1 F2400 X80.768 Y60.27 E54.16756
G1 X82.107 Y60.27 E54.01491
G1 F1500 E54.00291
G1 F600 Z0.4
G0 F4800 X127.772 Y64.12 Z0.4
;TYPE:WALL-OUTER
G1 F600 Z0.2
G1 F1500 E54.80291
G1 F1800 X127.482 Y64.496 E54.82079
G1 X127.138 Y64.761 E54.83713
G1 X126.706 Y64.942 E54.85477
G1 X126.252 Y65.002 E54.87201
G1 X125.796 Y64.944 E54.88931
G1 X125.371 Y64.769 E54.90662
G1 X125.012 Y64.494 E54.92364
G1 X124.732 Y64.13 E54.94093
G1 X124.553 Y63.687 E54.95892
G1 X124.498 Y63.251 E54.97546
G1 X124.556 Y62.796 E54.99273
G1 X124.731 Y62.37 E55.01007
G1 X125.008 Y62.013 E55.02708
G1 X125.374 Y61.732 E55.04445
G1 X125.816 Y61.553 E55.0624
G1 X126.25 Y61.498 E55.07887
G1 X126.705 Y61.556 E55.09614
G1 X127.13 Y61.734 E55.11349
G1 X127.486 Y62.007 E55.13038
G1 X127.767 Y62.371 E55.14769
G1 X127.945 Y62.807 E55.16542
G1 X128.002 Y63.265 E55.1828
G1 X127.939 Y63.717 E55.19998
G1 X127.772 Y64.12 E55.2164
G0 F4800 X127.65 Y64.278
G0 X128.184 Y64.374
;TYPE:WALL-INNER
G1 F1800 X127.836 Y64.829 E55.23998
G1 X127.374 Y65.184 E55.26396
G1 X126.803 Y65.415 E55.28931
G1 X126.256 Y65.481 E55.31199
G1 X125.675 Y65.411 E55.33607
G1 X125.128 Y65.186 E55.36042
G1 X124.672 Y64.836 E55.38408
G1 X124.315 Y64.373 E55.40814
G1 X124.089 Y63.832 E55.43227
G1 X124.017 Y63.226 E55.45739
G1 X124.09 Y62.671 E55.48043
G1 X124.314 Y62.128 E55.50461
G1 X124.649 Y61.691 E55.52727
G1 X125.108 Y61.328 E55.55136
G1 X125.671 Y61.09 E55.57652
G1 X126.255 Y61.013 E55.60076
G1 X126.853 Y61.1 E55.62563
G1 X127.349 Y61.304 E55.64771
G1 X127.808 Y61.647 E55.67129
G1 X128.169 Y62.104 E55.69526
G1 X128.407 Y62.659 E55.72012
G1 X128.479 Y63.206 E55.74283
G1 X128.479 Y63.299 E55.74666
G1 X128.413 Y63.82 E55.76827
G1 X128.184 Y64.374 E55.79294
;;retract;;
G1 F1500 E55.23294
G1 F2400 X127.374 Y65.184 E55.10241
G1 X126.803 Y65.415 E55.0323
G1 X126.565 Y65.443 E55.00494
G1 F1500 E54.99294
G1 F600 Z0.4
G0 F4800 X134.937 Y89.982 Z0.4
;TYPE:WALL-OUTER
G1 F600 Z0.2
G1 F1500 E55.79294
G1 F1800 X135.062 Y88.709 E55.8411
G1 X135.449 Y87.441 E55.89101
G1 X136.067 Y86.298 E55.93993
G1 X136.874 Y85.317 E55.98775
G1 X137.875 Y84.494 E56.03654
G1 X139.008 Y83.884 E56.08498
G1 X140.262 Y83.502 E56.13433
G1 X141.547 Y83.373 E56.18295
G1 X142.845 Y83.498 E56.23204
G1 X144.1 Y83.876 E56.28139
G1 X145.263 Y84.503 E56.33113
G1 X146.26 Y85.327 E56.37982
G1 X147.057 Y86.297 E56.42709
G1 X147.676 Y87.441 E56.47605
G1 X148.066 Y88.731 E56.52679
G1 X148.189 Y90.019 E56.5755
G1 X148.064 Y91.286 E56.62343
G1 X147.676 Y92.559 E56.67353
G1 X147.085 Y93.66 E56.72058
G1 X146.235 Y94.698 E56.77108
G1 X145.225 Y95.522 E56.82016
G1 X144.121 Y96.114 E56.86732
G1 X142.855 Y96.499 E56.91713
G1 X141.563 Y96.627 E56.96601
G1 X140.272 Y96.5 E57.01485
G1 X139.004 Y96.114 E57.06475
G1 X137.903 Y95.523 E57.11179
G1 X136.887 Y94.696 E57.16111
G1 X136.052 Y93.682 E57.21056
G1 X135.449 Y92.559 E57.25855
G1 X135.062 Y91.288 E57.30857
G1 X134.937 Y89.982 E57.35796
G0 F4800 X134.956 Y89.783
G0 X134.454 Y90.005
;TYPE:WALL-INNER
G1 F1800 X134.593 Y88.616 E57.41542
G1 X134.998 Y87.278 E57.47296
G1 X135.657 Y86.05 E57.53032
G1 X136.535 Y84.975 E57.58745
G1 X137.596 Y84.105 E57.64392
G1 X138.79 Y83.458 E57.69982
G1 X138.908 Y83.411 E57.70504
G1 X140.181 Y83.027 E57.75977
G1 X141.562 Y82.892 E57.81688
G1 X142.921 Y83.025 E57.87309
G1 X144.282 Y83.434 E57.93158
G1 X145.509 Y84.091 E57.98887
G1 X146.584 Y84.969 E58.04599
G1 X147.472 Y86.049 E58.10354
G1 X148.13 Y87.276 E58.16085
G1 X148.535 Y88.617 E58.21851
G1 X148.669 Y89.996 E58.27553
G1 X148.535 Y91.369 E58.33231
G1 X148.131 Y92.723 E58.39047
G1 X147.473 Y93.949 E58.44774
G1 X146.593 Y95.023 E58.50489
G1 X145.513 Y95.906 E58.56231
G1 X144.286 Y96.564 E58.61961
G1 X142.949 Y96.968 E58.6771
G1 X141.563 Y97.106 E58.73443
G1 X140.178 Y96.969 E58.79172
G1 X138.839 Y96.568 E58.84925
G1 X137.613 Y95.91 E58.90652
G1 X136.537 Y95.023 E58.96391
G1 X135.655 Y93.949 E59.02111
G1 X134.998 Y92.722 E59.0784
G1 X134.591 Y91.371 E59.13647
G1 X134.454 Y90.005 E59.19298
;;retract;;
G1 F1500 E58.63298
G1 F2400 X134.845 Y88.044 E58.40498
G1 F1500 E58.39298
G1 F600 Z0.4
G0 F4800 X134.937 Y109.982 Z0.4
;TYPE:WALL-OUTER
G1 F600 Z0.2
G1 F1500 E59.19298
G1 F1800 X135.062 Y108.709 E59.24114
G1 X135.449 Y107.441 E59.29105
G1 X136.067 Y106.298 E59.33996
G1 X136.872 Y105.319 E59.38768
G1 X137.879 Y104.491 E59.43676
G1 X139.004 Y103.886 E59.48485
G1 X140.27 Y103.5 E59.53468
G1 X141.563 Y103.373 E59.58359
G1 X142.831 Y103.496 E59.63155
G1 X144.121 Y103.886 E59.68229
G1 X145.263 Y104.503 E59.73115
G1 X146.26 Y105.327 E59.77985
G1 X147.057 Y106.297 E59.82711
G1 X147.676 Y107.441 E59.87608
G1 X148.066 Y108.731 E59.92681
G1 X148.19 Y109.996 E59.97467
G1 X148.064 Y111.286 E60.02346
G1 X147.676 Y112.559 E60.07356
G1 X147.085 Y113.66 E60.12061
G1 X146.235 Y114.698 E60.17112
G1 X145.225 Y115.522 E60.22019
G1 X144.121 Y116.114 E60.26735
G1 X142.855 Y116.499 E60.31717
G1 X141.563 Y116.627 E60.36604
G1 X140.272 Y116.5 E60.41488
G1 X139.004 Y116.114 E60.46478
G1 X137.903 Y115.523 E60.51182
G1 X136.887 Y114.696 E60.56114
G1 X136.052 Y113.682 E60.61059
G1 X135.449 Y112.559 E60.65858
G1 X135.062 Y111.288 E60.7086
G1 X134.937 Y109.982 E60.75799
G0 F4800 X134.956 Y109.783
G0 X134.454 Y110.005
;TYPE:WALL-INNER
G1 F1800 X134.593 Y108.616 E60.81545
G1 X134.998 Y107.278 E60.87299
G1 X135.657 Y106.05 E60.93035
G1 X136.536 Y104.974 E60.98753
G1 X137.611 Y104.095 E61.04469
G1 X138.839 Y103.436 E61.10205
G1 X140.176 Y103.031 E61.15955
G1 X141.564 Y102.891 E61.21697
G1 X142.948 Y103.03 E61.27422
G1 X144.286 Y103.436 E61.33177
G1 X145.513 Y104.094 E61.38908
G1 X146.584 Y104.969 E61.446
G1 X147.472 Y106.049 E61.50355
G1 X148.13 Y107.276 E61.56086
G1 X148.535 Y108.617 E61.61851
G1 X148.669 Y109.996 E61.67554
G1 X148.535 Y111.369 E61.73232
G1 X148.131 Y112.723 E61.79048
G1 X147.473 Y113.949 E61.84775
G1 X146.593 Y115.023 E61.9049
G1 X145.513 Y115.906 E61.96232
G1 X144.286 Y116.564 E62.01962
G1 X142.949 Y116.968 E62.07711
G1 X141.563 Y117.106 E62.13444
G1 X140.178 Y116.969 E62.19172
G1 X138.839 Y116.568 E62.24925
G1 X137.613 Y115.91 E62.30652
G1 X136.537 Y115.023 E62.36392
G1 X135.655 Y113.949 E62.42112
G1 X134.998 Y112.722 E62.47841
G1 X134.591 Y111.371 E62.53648
G1 X134.454 Y110.005 E62.59299
;;retract;;
G1 F1500 E62.03299
G1 F2400 X134.845 Y108.044 E61.80499
G1 F1500 E61.79299
G1 F600 Z0.4
G0 F4800 X134.937 Y129.982 Z0.4
;TYPE:WALL-OUTER
G1 F600 Z0.2
G1 F1500 E62.59299
G1 F1800 X135.062 Y128.709 E62.64114
G1 X135.449 Y127.441 E62.69105
G1 X136.067 Y126.298 E62.73997
G1 X136.872 Y125.319 E62.78769
G1 X137.862 Y124.504 E62.83596
G1 X139.004 Y123.886 E62.88485
G1 X140.27 Y123.5 E62.93467
G1 X141.563 Y123.373 E62.98359
G1 X142.831 Y123.496 E63.03155
G1 X144.121 Y123.886 E63.08228
G1 X145.263 Y124.503 E63.13115
G1 X146.26 Y125.327 E63.17984
G1 X147.057 Y126.297 E63.22711
G1 X147.676 Y127.441 E63.27608
G1 X148.066 Y128.731 E63.32681
G1 X148.189 Y130.019 E63.37552
G1 X148.064 Y131.286 E63.42345
G1 X147.676 Y132.559 E63.47355
G1 X147.085 Y133.66 E63.5206
G1 X146.235 Y134.698 E63.57111
G1 X145.263 Y135.497 E63.61847
G1 X144.1 Y136.124 E63.66822
G1 X142.854 Y136.5 E63.71721
G1 X141.573 Y136.627 E63.76568
G1 X140.279 Y136.502 E63.81462
G1 X139.032 Y136.127 E63.86364
G1 X137.89 Y135.515 E63.91242
G1 X136.881 Y134.69 E63.96149
G1 X136.052 Y133.682 E64.01062
G1 X135.449 Y132.559 E64.05861
G1 X135.062 Y131.288 E64.10862
G1 X134.937 Y129.982 E64.15802
G0 F4800 X134.956 Y129.783
G0 X134.454 Y130.005
;TYPE:WALL-INNER
G1 F1800 X134.593 Y128.616 E64.21547
G1 X134.998 Y127.278 E64.27301
G1 X135.657 Y126.05 E64.33037
G1 X136.536 Y124.974 E64.38756
G1 X137.558 Y124.134 E64.44201
G1 X137.675 Y124.056 E64.4478
G1 X138.839 Y123.436 E64.50208
G1 X140.176 Y123.031 E64.55958
G1 X141.564 Y122.891 E64.617
G1 X142.948 Y123.03 E64.67425
G1 X144.286 Y123.436 E64.7318
G1 X145.513 Y124.094 E64.78911
G1 X146.584 Y124.969 E64.84603
G1 X147.472 Y126.049 E64.90358
G1 X148.13 Y127.276 E64.96088
G1 X148.535 Y128.617 E65.01854
G1 X148.669 Y129.996 E65.07557
G1 X148.535 Y131.369 E65.13235
G1 X148.131 Y132.723 E65.19051
G1 X147.473 Y133.949 E65.24778
G1 X146.593 Y135.023 E65.30492
G1 X145.509 Y135.909 E65.36255
G1 X144.284 Y136.569 E65.41982
G1 X142.945 Y136.97 E65.47735
G1 X141.559 Y137.108 E65.53468
G1 X140.201 Y136.974 E65.59085
G1 X138.834 Y136.566 E65.64956
G1 X137.609 Y135.906 E65.70684
G1 X136.54 Y135.031 E65.7637
G1 X135.655 Y133.949 E65.82123
G1 X134.998 Y132.722 E65.87852
