;FLAVOR:Marlin
;TIME:13047.9
;Filament used:20.9547m
;Layer height:0.2
;MINX:62.48
;MINY:37.48
;MINZ:0.2
;MAXX:157.52
;MAXY:182.52
;MAXZ:42.8
;OuterWall Time:2988.4
;InnerWall Time:2017.28
;Skin Time:5179.59
;Support Time:126.921
;SkirtBrim Time:112.264
;Infill Time:650.317
;Support Infills Time:0
;Combing Time:1267.8
;Retraction Time:693.35
;PrimeTower Time:11.9429
;;;;;;;;;;;;;;;;;;;;;;;;;;;;;;;;;;;;;;;;;;;;;;;;;;;;;;;;;;;;;;;;;;
;Creality Print GCode Generated by CXEngine
;CRSLICE_GIT_HASH:d90fa71
;Creality Print Version : V4.3.8.6674
;CXEngine Release Time:2023-10-16 18:06:53
;Gcode Generated Time:2025-02-14 20:43:45
;----------Machine Config--------------
;Machine Name:Ender-3 V3 SE
;Machine Height:250
;Machine Width:220
;Machine Depth:220
;Material Type:PLA
;Material Name:CR-PLA_1.75
;Number of Extruders:1
;ExtruderParams[0] Nozzle Diameter:1000
;----------Profile Config---------------
;Wall Thickness:0.8
;Top/Bottom Thickness:0.8
;Out Wall Line Width:0.42
;Inner Wall Line Width:0.45
;Inital Height:200
;Wall Line Count:2
;Infill Line Distance:8
;Infill Pattern:grid
;Infill Sparse Density:10
;Infill Wipe Distance:0
;Print Temperature:190
;Bed Temperature:60
;Support Enable:false
;Support Density:15
;Support Angle:60
;Adhesion Type:autobrim
;machine is belt:false
;machine belt offset:10
;machine belt offset Y:0
;Raft Base Line Spacing:1.6
;Wait Heatup Sync:true
;Enable Ironing:false
;Material Type:PLA
;Max volumetric speed:20
;Material Diameter:1.75
;Material Density:1.24
;Filament Cost:20
;Filament Weight:1000
;Preview Img Type:png
;Screen Size:Sermoon D3
;----------Shell Config----------------
;Outer Wall Wipe Distance:200
;Outer Inset First:false
;Infill Before Walls:false
;Infill Overlap:0.04
;Fill Gaps Between Walls:everywhere
;Minimum Infill Area:15
;Top Surface Skin Layer:0
;Top Layers:4
;Z Seam Alignment:sharpest_corner
;Seam Corner Preference:z_seam_corner_inner
;Z Seam X:110
;Z Seam Y:220
;Horizontal Expansion:0
;Top/Bottom Pattern:zigzag
;Ironing Pattern:zigzag
;Vase Model:false
;----------Support Config----------------
;Support Type:everywhere
;Support Pattern:zigzag
;Support Infill Layer Thickness:0.15
;Minimum Support Area:1
;Enable Support Roof:true
;Support Roof Thickness:0.8
;Support Roof Pattern:lines
;Connect Support Lines:0
;Connect Support ZigZags:1
;Minimum Support X/Y Distance:0.2
;Support Line Distance:2.67
; ---------PrintSpeed & Travel----------
;Enable Print Cool:true
;Avoid Printed Parts Traveling:true
;Enable Retraction:true
;Retraction Distance:0.8
;Retraction Speed:25
;Retraction Prime Speed:25
;Maximum Retraction Count:100
;Minimum Extrusion Distance Window:0.8
;Z Hop When Retracted:true
;Z Hop Height:0.2
;Retract Before Outer Wall:true

;Outer Wall Speed:60
;Inner Wall Speed:90
;Infill Speed:180
;Top/Bottom Speed:50
;Travel Speed:150
;Initial Layer Speed:30
;Skirt/Brim Speed:25
;Prime Tower Speed:60
;Outer Wall Acceleration:1000
;Inner Wall Acceleration:2000
;Infill Acceleration:2500
;Top/Bottom Acceleration:2500
;Travel Acceleration:2500
;Initial Layer Print Acceleration:500
;Initial Layer Travel Acceleration:500
;Skirt/Brim Acceleration:500
;Combing Mode:no_outer_surfaces
; --------SpecialModel&Mesh Fixes--------
;Union Overlapping Volum:true
;Remove All Holes:false
;Maximum Travel Resolution:0.25
;Maximum Deviation:0.05
;Maximum Model Angle:0.872665
;IS Mold Print:false
;Make Overhang Printable:false
;Enable Coasting:false
;Coasting Volumes:0.064
;Coasting Speed:0.9
;Raft AirGap:0.25
;Layer0 ZOverLap:0.13
;Adaptive Layers:0
;---------------------End of Head--------------------------
M140 S60
M105
M190 S60
M104 S190
M82 ;absolute extrusion mode
M220 S100 ;Reset Feedrate
M221 S100 ;Reset Flowrate

G28 ;Home

G92 E0 ;Reset Extruder
G1 Z2.0 F3000 ;Move Z Axis up
G1 X-2.1 Y20 Z0.28 F5000.0 ;Move to start position
M109 S190.000000
G1 X-2.1 Y145.0 Z0.28 F1500.0 E15 ;Draw the first line
G1 X-2.4 Y145.0 Z0.28 F5000.0 ;Move to side a little
G1 X-2.4 Y20 Z0.28 F1500.0 E30 ;Draw the second line
G92 E0  ;Reset Extruder
G1 E-1.0000 F1800 ;Retract a bit
G1 Z2.0 F3000 ;Move Z Axis up
G1 E0.0000 F1800 

G92 E0
G92 E0
G1 F1500 E-0.8
;LAYER_COUNT:213

;LAYER:0
M106 S0
M204 S500
;;retract;;
G1 F1500 E-0.56
G1 F1500 E-0.8
G1 F600 Z0.4
G0 F4800 X62.832 Y38.731 Z0.4
;TYPE:SKIRT
G1 F600 Z0.2
G1 F1500 E0
G1 X62.638 Y39.138 E0.01732
G1 X62.52 Y39.572 E0.0346
G1 X62.48 Y40.021 E0.05191
G1 X62.48 Y178.491 E5.3713
G1 X62.561 Y179.127 E5.39593
G1 X62.712 Y179.551 E5.41322
G1 X62.935 Y179.942 E5.43051
G1 X63.224 Y180.288 E5.44783
G1 X64.712 Y181.776 E5.52867
G1 X65.219 Y182.168 E5.55329
G1 X65.626 Y182.362 E5.57061
G1 X66.06 Y182.48 E5.58789
G1 X66.509 Y182.52 E5.60521
G1 X153.491 Y182.52 E8.94666
G1 X154.127 Y182.439 E8.97129
G1 X154.551 Y182.288 E8.98858
G1 X154.942 Y182.065 E9.00587
G1 X155.288 Y181.776 E9.02319
G1 X156.776 Y180.288 E9.10403
G1 X157.168 Y179.781 E9.12865
G1 X157.362 Y179.374 E9.14597
G1 X157.48 Y178.94 E9.16325
G1 X157.52 Y178.491 E9.18056
G1 X157.52 Y40.021 E14.49995
G1 X157.491 Y39.639 E14.51467
G1 X157.384 Y39.202 E14.53195
G1 X157.202 Y38.79 E14.54925
G1 X156.949 Y38.417 E14.56657
G1 X156.635 Y38.094 E14.58387
G1 X156.269 Y37.832 E14.60116
G1 X155.862 Y37.638 E14.61849
G1 X155.428 Y37.52 E14.63576
G1 X154.979 Y37.48 E14.65308
G1 X65.021 Y37.48 E18.10886
G1 X64.639 Y37.509 E18.12357
G1 X64.202 Y37.616 E18.14086
G1 X63.79 Y37.798 E18.15816
G1 X63.417 Y38.051 E18.17547
G1 X63.094 Y38.365 E18.19278
G1 X62.832 Y38.731 E18.21007
G0 F4800 X63.292 Y38.867
G1 F1500 X63.1 Y39.226 E18.22571
G1 X62.982 Y39.616 E18.24136
G1 X62.942 Y40.021 E18.257
G1 X62.942 Y178.491 E23.57639
G1 X62.982 Y178.897 E23.59206
G1 X63.1 Y179.287 E23.60771
G1 X63.292 Y179.646 E23.62335
G1 X63.551 Y179.961 E23.63902
G1 X65.039 Y181.449 E23.71986
G1 X65.355 Y181.708 E23.73555
G1 X65.714 Y181.9 E23.75119
G1 X66.104 Y182.018 E23.76684
G1 X66.509 Y182.058 E23.78248
G1 X153.491 Y182.058 E27.12393
G1 X153.897 Y182.018 E27.1396
G1 X154.287 Y181.9 E27.15526
G1 X154.646 Y181.708 E27.1709
G1 X154.961 Y181.449 E27.18656
G1 X156.449 Y179.961 E27.2674
G1 X156.708 Y179.645 E27.2831
G1 X156.9 Y179.286 E27.29874
G1 X157.018 Y178.896 E27.31439
G1 X157.058 Y178.491 E27.33002
G1 X157.058 Y40.021 E32.64941
G1 X157.018 Y39.614 E32.66512
G1 X156.899 Y39.224 E32.68079
G1 X156.707 Y38.865 E32.69643
G1 X156.448 Y38.55 E32.71209
G1 X156.133 Y38.292 E32.72773
G1 X155.774 Y38.1 E32.74337
G1 X155.384 Y37.982 E32.75903
G1 X154.979 Y37.942 E32.77466
G1 X65.021 Y37.942 E36.23044
G1 X64.614 Y37.982 E36.24615
G1 X64.224 Y38.101 E36.26181
G1 X63.865 Y38.293 E36.27745
G1 X63.55 Y38.552 E36.29312
G1 X63.292 Y38.867 E36.30876
G0 F4800 X63.751 Y39.02
G1 F1500 X63.562 Y39.325 E36.32254
G1 X63.444 Y39.664 E36.33633
G1 X63.404 Y40.021 E36.35013
G1 X63.404 Y178.634 E41.67501
G1 X63.497 Y179.031 E41.69068
G1 X63.653 Y179.354 E41.70446
G1 X63.878 Y179.634 E41.71826
G1 X65.469 Y181.225 E41.80469
G1 X65.813 Y181.438 E41.82023
G1 X66.152 Y181.556 E41.83402
G1 X66.509 Y181.596 E41.84782
G1 X153.634 Y181.596 E45.19477
G1 X154.031 Y181.503 E45.21043
G1 X154.354 Y181.347 E45.22421
G1 X154.634 Y181.122 E45.23801
G1 X156.225 Y179.531 E45.32445
G1 X156.438 Y179.187 E45.33999
G1 X156.556 Y178.848 E45.35378
G1 X156.596 Y178.491 E45.36758
G1 X156.596 Y40.021 E50.68697
G1 X156.551 Y39.644 E50.70155
G1 X156.429 Y39.306 E50.71536
G1 X156.236 Y39.003 E50.72916
G1 X155.98 Y38.751 E50.74296
G1 X155.675 Y38.562 E50.75674
G1 X155.336 Y38.444 E50.77053
G1 X154.979 Y38.404 E50.78433
G1 X65.021 Y38.404 E54.24011
G1 X64.644 Y38.449 E54.25469
G1 X64.306 Y38.571 E54.2685
G1 X64.003 Y38.764 E54.2823
G1 X63.751 Y39.02 E54.2961
G0 F4800 X64.208 Y39.2
G1 F1500 X64.023 Y39.44 E54.30774
G1 X63.906 Y39.72 E54.3194
G1 X63.866 Y40.021 E54.33106
G1 X63.866 Y178.491 E59.65045
G1 X63.904 Y178.786 E59.66188
G1 X64.02 Y179.067 E59.67356
G1 X64.204 Y179.308 E59.6852
G1 X65.692 Y180.796 E59.76604
G1 X65.928 Y180.977 E59.77747
G1 X66.208 Y181.094 E59.78913
G1 X66.509 Y181.134 E59.80079
G1 X153.491 Y181.134 E63.14224
G1 X153.786 Y181.096 E63.15367
G1 X154.067 Y180.98 E63.16535
G1 X154.308 Y180.796 E63.177
G1 X155.796 Y179.308 E63.25784
G1 X155.977 Y179.072 E63.26926
G1 X156.094 Y178.792 E63.28092
G1 X156.134 Y178.491 E63.29258
G1 X156.134 Y40.021 E68.61197
G1 X156.097 Y39.731 E68.6232
G1 X155.983 Y39.45 E68.63485
G1 X155.8 Y39.208 E68.64651
G1 X155.56 Y39.023 E68.65815
G1 X155.28 Y38.906 E68.66981
G1 X154.979 Y38.866 E68.68147
G1 X65.021 Y38.866 E72.13725
G1 X64.731 Y38.903 E72.14848
G1 X64.45 Y39.017 E72.16013
G1 X64.208 Y39.2 E72.17178
G0 F4800 X64.79 Y39.924
G1 F1500 X64.79 Y178.491 E77.4949
G1 X64.858 Y178.654 E77.50168
G1 X66.346 Y180.142 E77.58252
G1 X66.509 Y180.21 E77.58931
G1 X153.491 Y180.21 E80.93076
G1 X153.654 Y180.142 E80.93755
G1 X155.142 Y178.654 E81.01838
G1 X155.21 Y178.491 E81.02517
G1 X155.21 Y39.954 E86.34713
G1 X155.076 Y39.79 E86.35527
G1 X64.954 Y39.79 E89.81734
G1 X64.79 Y39.924 E89.82548
G0 F4800 X64.542 Y39.477
G1 F1500 X64.328 Y39.862 E89.8424
G1 X64.328 Y178.491 E95.1679
G1 X64.413 Y178.863 E95.18256
G1 X66.019 Y180.469 E95.26981
G1 X66.342 Y180.672 E95.28446
G1 X153.491 Y180.672 E98.63233
G1 X153.863 Y180.587 E98.64699
G1 X155.469 Y178.981 E98.73424
G1 X155.672 Y178.658 E98.7489
G1 X155.672 Y39.913 E104.07885
G1 X155.523 Y39.542 E104.09421
G1 X155.138 Y39.328 E104.11113
G1 X64.913 Y39.328 E107.57716
G1 X64.542 Y39.477 E107.59252
;;retract;;
G1 F1500 E107.03252
G1 F2400 X64.539 Y41.477 E106.80452
G1 F1500 E106.79252
;MESH:0_0
G0 F4800 X65.252 Y40.252
;TYPE:WALL-OUTER
G1 F1500 E107.59252
G1 F1800 X154.748 Y40.252 E110.96179
G1 X154.748 Y50.65 E111.35324
G1 X154.748 Y178.395 E116.16248
G1 X153.395 Y179.748 E116.23451
G1 X66.605 Y179.748 E119.50191
G1 X65.252 Y178.395 E119.57395
G1 X65.252 Y40.252 E124.77464
G0 F4800 X65.452 Y40.252
G0 X65.731 Y40.731
;TYPE:WALL-INNER
G1 F1800 X154.27 Y40.731 E128.41885
G1 X154.27 Y50.65 E128.82711
G1 X154.27 Y178.197 E134.07687
G1 X153.197 Y179.27 E134.13933
G1 X66.803 Y179.27 E137.69525
G1 X65.731 Y178.197 E137.75768
G1 X65.731 Y40.731 E143.4157
;;retract;;
G1 F1500 E142.8557
G1 F2400 X67.718 Y40.953 E142.6277
G1 F1500 E142.6157
G1 F600 Z0.4
G0 F4800 X85.544 Y47.367 Z0.4
;TYPE:WALL-OUTER
G1 F600 Z0.2
G1 F1500 E143.4157
G1 F1800 X85.327 Y46.845 E143.43698
G1 X85.248 Y46.253 E143.45947
G1 X85.323 Y45.669 E143.48164
G1 X85.55 Y45.118 E143.50407
G1 X85.902 Y44.661 E143.52579
G1 X86.368 Y44.3 E143.54798
G1 X86.936 Y44.07 E143.57105
G1 X87.5 Y43.998 E143.59246
G1 X88.081 Y44.073 E143.61451
G1 X88.632 Y44.3 E143.63694
G1 X89.089 Y44.652 E143.65866
G1 X89.451 Y45.12 E143.68094
G1 X89.677 Y45.664 E143.70311
G1 X89.752 Y46.251 E143.72539
G1 X89.673 Y46.845 E143.74795
G1 X89.456 Y47.366 E143.7692
G1 X89.089 Y47.846 E143.79195
G1 X88.632 Y48.198 E143.81366
G1 X88.086 Y48.427 E143.83595
G1 X87.516 Y48.502 E143.8576
G1 X86.912 Y48.424 E143.88052
G1 X86.377 Y48.203 E143.90232
G1 X85.917 Y47.852 E143.9241
G1 X85.544 Y47.367 E143.94713
G0 F4800 X85.468 Y47.183
G0 X85.134 Y47.623
;TYPE:WALL-INNER
G1 F1800 X84.861 Y46.975 E143.97607
G1 X84.767 Y46.23 E144.00698
G1 X84.857 Y45.54 E144.03562
G1 X85.13 Y44.881 E144.06498
G1 X85.562 Y44.319 E144.09416
G1 X86.127 Y43.882 E144.12356
G1 X86.79 Y43.607 E144.1531
G1 X87.5 Y43.514 E144.18257
G1 X88.21 Y43.607 E144.21205
G1 X88.871 Y43.881 E144.2415
G1 X89.43 Y44.31 E144.2705
G1 X89.87 Y44.88 E144.30014
G1 X90.144 Y45.541 E144.32959
G1 X90.234 Y46.227 E144.35807
G1 X90.147 Y46.947 E144.38792
G1 X89.865 Y47.629 E144.41829
G1 X89.496 Y48.108 E144.44318
G1 X89.411 Y48.2 E144.44833
G1 X88.879 Y48.613 E144.47605
G1 X88.21 Y48.893 E144.5059
G1 X87.5 Y48.987 E144.53538
G1 X86.795 Y48.894 E144.56465
G1 X86.122 Y48.612 E144.59469
G1 X85.571 Y48.19 E144.62325
G1 X85.134 Y47.623 E144.65272
;;retract;;
G1 F1500 E144.09272
G1 F2400 X84.767 Y46.23 E143.92856
G1 X84.839 Y45.675 E143.86472
G1 F1500 E143.85272
G1 F600 Z0.4
G0 F4800 X79.491 Y68.123 Z0.4
;TYPE:WALL-OUTER
G1 F600 Z0.2
G1 F1500 E144.65272
G1 F1800 X79.946 Y68.181 E144.66998
G1 X80.376 Y68.357 E144.68748
G1 X80.724 Y68.621 E144.70392
G1 X81.009 Y68.984 E144.7213
G1 X81.194 Y69.418 E144.73906
G1 X81.252 Y69.861 E144.75588
G1 X81.196 Y70.317 E144.77317
G1 X81.026 Y70.737 E144.79023
G1 X80.748 Y71.106 E144.80762
G1 X80.39 Y71.385 E144.82471
G1 X79.956 Y71.569 E144.84246
G1 X79.508 Y71.627 E144.85946
G1 X79.049 Y71.568 E144.87689
G1 X78.63 Y71.397 E144.89392
G1 X78.257 Y71.111 E144.91162
G1 X77.984 Y70.756 E144.92848
G1 X77.808 Y70.332 E144.94576
G1 X77.748 Y69.876 E144.96308
G1 X77.806 Y69.42 E144.98038
G1 X77.984 Y68.995 E144.99773
G1 X78.25 Y68.647 E145.01422
G1 X78.612 Y68.364 E145.03152
G1 X79.036 Y68.186 E145.04883
G1 X79.491 Y68.123 E145.06612
G0 F4800 X79.689 Y68.148
G0 X79.498 Y67.639
;TYPE:WALL-INNER
G1 F1800 X80.08 Y67.716 E145.09029
G1 X80.632 Y67.948 E145.11493
G1 X81.079 Y68.291 E145.13812
G1 X81.432 Y68.752 E145.16202
G1 X81.658 Y69.292 E145.18611
G1 X81.731 Y69.872 E145.21017
G1 X81.663 Y70.451 E145.23417
G1 X81.433 Y70.999 E145.25863
G1 X81.089 Y71.448 E145.28191
G1 X80.614 Y71.815 E145.30662
G1 X80.081 Y72.033 E145.33032
G1 X79.507 Y72.112 E145.35417
G1 X78.918 Y72.034 E145.37862
G1 X78.369 Y71.804 E145.40312
G1 X77.995 Y71.517 E145.42253
G1 X77.906 Y71.436 E145.42748
G1 X77.571 Y70.997 E145.45021
G1 X77.34 Y70.461 E145.47423
G1 X77.267 Y69.848 E145.49964
G1 X77.35 Y69.272 E145.52359
G1 X77.565 Y68.751 E145.54679
G1 X77.908 Y68.305 E145.56995
G1 X78.367 Y67.946 E145.59393
G1 X78.932 Y67.713 E145.61909
G1 X79.498 Y67.639 E145.64258
;;retract;;
G1 F1500 E145.08258
G1 F2400 X80.632 Y67.948 E144.94863
G1 X81.079 Y68.291 E144.88445
G1 X81.238 Y68.499 E144.85458
G1 F1500 E144.84258
G1 F600 Z0.4
G0 F4800 X85.248 Y110.011 Z0.4
;TYPE:WALL-OUTER
G1 F600 Z0.2
G1 F1500 E145.64258
G1 F1800 X85.328 Y109.407 E145.66552
G1 X85.559 Y108.857 E145.68798
G1 X85.894 Y108.422 E145.70865
G1 X86.387 Y108.042 E145.73208
G1 X86.907 Y107.827 E145.75327
G1 X87.49 Y107.748 E145.77542
G1 X88.073 Y107.822 E145.79754
G1 X88.635 Y108.054 E145.82043
G1 X89.074 Y108.39 E145.84124
G1 X89.442 Y108.858 E145.86365
G1 X89.679 Y109.43 E145.88696
G1 X89.752 Y109.984 E145.908
G1 X89.678 Y110.577 E145.9305
G1 X89.442 Y111.142 E145.95355
G1 X89.103 Y111.582 E145.97446
G1 X88.639 Y111.944 E145.99662
G1 X88.079 Y112.177 E146.01945
G1 X87.516 Y112.252 E146.04083
G1 X86.927 Y112.178 E146.06318
G1 X86.377 Y111.953 E146.08555
G1 X85.922 Y111.606 E146.1071
G1 X85.544 Y111.117 E146.13037
G1 X85.328 Y110.597 E146.15156
G1 X85.248 Y110.011 E146.17383
G0 F4800 X85.274 Y109.813
G0 X84.766 Y110.001
;TYPE:WALL-INNER
G1 F1800 X84.855 Y109.323 E146.20197
G1 X84.871 Y109.263 E146.20453
G1 X85.133 Y108.627 E146.23284
G1 X85.566 Y108.072 E146.26182
G1 X86.118 Y107.639 E146.29069
G1 X86.793 Y107.357 E146.3208
G1 X87.499 Y107.264 E146.35011
G1 X88.2 Y107.357 E146.37922
G1 X88.861 Y107.628 E146.40862
G1 X89.427 Y108.059 E146.4379
G1 X89.877 Y108.648 E146.46841
G1 X90.141 Y109.287 E146.49687
G1 X90.237 Y109.997 E146.52636
G1 X90.144 Y110.701 E146.55558
G1 X89.865 Y111.378 E146.58572
G1 X89.437 Y111.932 E146.61454
G1 X88.858 Y112.375 E146.64454
G1 X88.216 Y112.64 E146.67313
G1 X87.498 Y112.736 E146.70295
G1 X86.791 Y112.643 E146.7323
G1 X86.128 Y112.368 E146.76184
G1 X85.572 Y111.939 E146.79074
G1 X85.133 Y111.373 E146.82023
G1 X84.856 Y110.703 E146.85007
G1 X84.766 Y110.001 E146.8792
;;retract;;
G1 F1500 E146.3192
G1 F2400 X84.871 Y109.263 E146.23427
G1 X85.133 Y108.627 E146.15595
G1 X85.482 Y108.179 E146.0912
G1 F1500 E146.0792
G1 F600 Z0.4
G0 F4800 X78.257 Y151.361 Z0.4
;TYPE:WALL-OUTER
G1 F600 Z0.2
G1 F1500 E146.8792
G1 F1800 X77.984 Y151.006 E146.89606
G1 X77.808 Y150.582 E146.91334
G1 X77.748 Y150.126 E146.93066
G1 X77.806 Y149.67 E146.94796
G1 X77.984 Y149.245 E146.96531
G1 X78.25 Y148.897 E146.9818
G1 X78.612 Y148.614 E146.9991
G1 X79.062 Y148.429 E147.01741
G1 X79.47 Y148.375 E147.03291
G1 X79.508 Y148.373 E147.03434
G1 X79.95 Y148.432 E147.05113
G1 X80.379 Y148.608 E147.06858
G1 X80.731 Y148.877 E147.08526
G1 X81.02 Y149.252 E147.10309
G1 X81.194 Y149.676 E147.12034
G1 X81.252 Y150.112 E147.1369
