;FLAVOR:Marlin
;TIME:282.983
;Filament used:0.32337m
;Layer height:0.2
;MINX:107.231
;MINY:77.731
;MINZ:0.2
;MAXX:112.769
;MAXY:142.269
;MAXZ:2.8
;OuterWall Time:51.4023
;InnerWall Time:43.3971
;Skin Time:121.263
;Support Time:0
;SkirtBrim Time:0
;Infill Time:4.62892
;Support Infills Time:0
;Combing Time:26.4944
;Retraction Time:35.7975
;PrimeTower Time:0

;;;;;;;;;;;;;;;;;;;;;;;;;;;;;;;;;;;;;;;;;;;;;;;;;;;;;;;;;;;;;;;;;;;;;;;;;;;;
;Creality Print GCode Generated by CXEngine
;CRSLICE_GIT_HASH:d90fa71
;Creality Print Version : V4.3.8.6674
;CXEngine Release Time:2023-10-16 18:06:53
;Gcode Generated Time:2025-02-17 22:28:03
;----------Machine Config--------------
;Machine Name:Ender-3 V3 SE
;Machine Height:250
;Machine Width:220
;Machine Depth:220
;Material Type:PLA
;Material Name:CR-PLA_1.75
;Number of Extruders:1
;ExtruderParams[0] Nozzle Diameter:1000
;----------Profile Config---------------
;Wall Thickness:0.8
;Top/Bottom Thickness:0.8
;Out Wall Line Width:0.42
;Inner Wall Line Width:0.45
;Inital Height:200
;Wall Line Count:2
;Infill Line Distance:8
;Infill Pattern:grid
;Infill Sparse Density:10
;Infill Wipe Distance:0
;Print Temperature:190
;Bed Temperature:60
;Support Enable:false
;Support Density:15
;Support Angle:60
;Adhesion Type:autobrim
;machine is belt:false
;machine belt offset:10
;machine belt offset Y:0
;Raft Base Line Spacing:1.6
;Wait Heatup Sync:true
;Enable Ironing:false
;Material Type:PLA
;Max volumetric speed:20
;Material Diameter:1.75
;Material Density:1.24
;Filament Cost:20
;Filament Weight:1000
;Preview Img Type:png
;Screen Size:Sermoon D3
;----------Shell Config----------------
;Outer Wall Wipe Distance:200
;Outer Inset First:false
;Infill Before Walls:false
;Infill Overlap:0.04
;Fill Gaps Between Walls:everywhere
;Minimum Infill Area:15
;Top Surface Skin Layer:0
;Top Layers:4
;Z Seam Alignment:sharpest_corner
;Seam Corner Preference:z_seam_corner_inner
;Z Seam X:110
;Z Seam Y:220
;Horizontal Expansion:0
;Top/Bottom Pattern:zigzag
;Ironing Pattern:zigzag
;Vase Model:false
;----------Support Config----------------
;Support Type:everywhere
;Support Pattern:zigzag
;Support Infill Layer Thickness:0.15
;Minimum Support Area:1
;Enable Support Roof:true
;Support Roof Thickness:0.8
;Support Roof Pattern:lines
;Connect Support Lines:0
;Connect Support ZigZags:1
;Minimum Support X/Y Distance:0.2
;Support Line Distance:2.67
; ---------PrintSpeed & Travel----------
;Enable Print Cool:true
;Avoid Printed Parts Traveling:true
;Enable Retraction:true
;Retraction Distance:0.8
;Retraction Speed:25
;Retraction Prime Speed:25
;Maximum Retraction Count:100
;Minimum Extrusion Distance Window:0.8
;Z Hop When Retracted:true
;Z Hop Height:0.2
;Retract Before Outer Wall:true

;Outer Wall Speed:60
;Inner Wall Speed:90
;Infill Speed:180
;Top/Bottom Speed:50
;Travel Speed:150
;Initial Layer Speed:30
;Skirt/Brim Speed:25
;Prime Tower Speed:60
;Outer Wall Acceleration:1000
;Inner Wall Acceleration:2000
;Infill Acceleration:2500
;Top/Bottom Acceleration:2500
;Travel Acceleration:2500
;Initial Layer Print Acceleration:500
;Initial Layer Travel Acceleration:500
;Skirt/Brim Acceleration:500
;Combing Mode:no_outer_surfaces
; --------SpecialModel&Mesh Fixes--------
;Union Overlapping Volum:true
;Remove All Holes:false
;Maximum Travel Resolution:0.25
;Maximum Deviation:0.05
;Maximum Model Angle:0.872665
;IS Mold Print:false
;Make Overhang Printable:false
;Enable Coasting:false
;Coasting Volumes:0.064
;Coasting Speed:0.9
;Raft AirGap:0.25
;Layer0 ZOverLap:0.13
;Adaptive Layers:0
;---------------------End of Head--------------------------
M140 S60
M105
M190 S60
M104 S190
M82 ;absolute extrusion mode
M220 S100 ;Reset Feedrate
M221 S100 ;Reset Flowrate

G28 ;Home

G92 E0 ;Reset Extruder
G1 Z2.0 F3000 ;Move Z Axis up
G1 X-2.1 Y20 Z0.28 F5000.0 ;Move to start position
M109 S190.000000
G1 X-2.1 Y145.0 Z0.28 F1500.0 E15 ;Draw the first line
G1 X-2.4 Y145.0 Z0.28 F5000.0 ;Move to side a little
G1 X-2.4 Y20 Z0.28 F1500.0 E30 ;Draw the second line
G92 E0  ;Reset Extruder
G1 E-1.0000 F1800 ;Retract a bit
G1 Z2.0 F3000 ;Move Z Axis up
G1 E0.0000 F1800 

G92 E0
G92 E0
G1 F1500 E-0.8
;LAYER_COUNT:13

;LAYER:0
M106 S0
M204 S500
;;retract;;
G1 F1500 E-0.56
G1 F1500 E-0.8
G1 F600 Z0.4
;MESH:0_0
G0 F4800 X107.252 Y77.752 Z0.4
;TYPE:WALL-OUTER
G1 F600 Z0.2
G1 F1500 E0
G1 F1800 X112.748 Y77.752 E0.20691
G1 X112.748 Y78.775 E0.24542
G1 X112.748 Y142.248 E2.635
G1 X107.252 Y142.248 E2.84191
G1 X107.252 Y77.752 E5.27
G0 F4800 X107.452 Y77.752
;;retract;;
G1 F1500 E4.71
G1 F2400 X109.416 Y78.131 E4.482
G1 F1500 E4.47
G1 F600 Z0.4
G0 F4800 X107.901 Y78.401 Z0.4
G0 X107.954 Y79.595
G0 X108.017 Y79.894
G0 X108.16 Y79.673
G1 F1500 E5.27
G0 F4800 X108.789 Y79.925
G1 F600 Z0.2
G1 F1800 X108.914 Y79.621 E5.28237
G1 X109.108 Y79.368 E5.29438
G1 X109.369 Y79.165 E5.30682
G1 X109.695 Y79.036 E5.32002
G1 X110 Y78.998 E5.33159
G1 X110.325 Y79.039 E5.34393
G1 X110.629 Y79.164 E5.3563
G1 X110.882 Y79.358 E5.3683
G1 X111.086 Y79.621 E5.38083
G1 X111.2 Y79.897 E5.39208
G1 X111.215 Y79.955 E5.39433
G1 X111.252 Y80.249 E5.40549
G1 X111.215 Y80.554 E5.41705
G1 X111.085 Y80.88 E5.43027
G1 X110.892 Y81.132 E5.44222
G1 X110.629 Y81.336 E5.45475
G1 X110.326 Y81.461 E5.46709
G1 X110 Y81.502 E5.47946
G1 X109.675 Y81.461 E5.49179
G1 X109.37 Y81.336 E5.5042
G1 X109.117 Y81.14 E5.51625
G1 X108.915 Y80.88 E5.52864
G1 X108.786 Y80.558 E5.5417
G1 X108.748 Y80.251 E5.55335
G1 X108.789 Y79.925 E5.56572
G0 F4800 X108.865 Y79.74
G0 X108.293 Y79.844
;TYPE:WALL-INNER
G1 F1743.6 X108.504 Y79.369 E5.5878
G1 F1782 X108.768 Y79.027 E5.60576
G1 F1800 X109.142 Y78.735 E5.62529
G1 F1941.2 X109.513 Y78.613 E5.6402
G1 F2189.2 X110 Y78.571 E5.65674
G1 F2178.5 X110.497 Y78.613 E5.6737
G1 F1937 X110.857 Y78.736 E5.68825
G1 F1800 X111.223 Y79.017 E5.70725
G1 F1789.2 X111.496 Y79.368 E5.72566
G1 F1760.9 X111.648 Y79.711 E5.74144
G1 F1700.4 X111.711 Y79.889 E5.74967
G1 F1687.5 X111.742 Y80.249 E5.76553
G1 F1723.4 X111.707 Y80.668 E5.78361
G1 F1740.2 X111.494 Y81.134 E5.80542
G1 F1782 X111.232 Y81.473 E5.82324
G1 F1800 X110.874 Y81.752 E5.84192
G1 X110.448 Y81.928 E5.86089
G1 X110 Y81.981 E5.87946
G1 X109.555 Y81.929 E5.8979
G1 X109.127 Y81.752 E5.91696
G1 X108.776 Y81.481 E5.93521
G1 F1782 X108.511 Y81.141 E5.95313
G1 F1740.2 X108.295 Y80.678 E5.97488
G1 F1723.4 X108.259 Y80.251 E5.99331
G1 X108.293 Y79.844 E6.01086
;;retract;;
G1 F1500 E5.45086
G1 F2400 X108.768 Y79.027 E5.34313
G1 X109.142 Y78.735 E5.2891
G1 X109.513 Y78.613 E5.24464
G1 X109.703 Y78.597 E5.22286
G1 F1500 E5.21086
G1 F600 Z0.4
G0 F4800 X108.118 Y79.82 Z0.4
G0 X107.939 Y81.184
G0 X107.954 Y99.512
G0 X108.228 Y100.753
G0 X108.372 Y101.104
G0 X108.568 Y101.345
G0 X109.121 Y101.883
G1 F1500 E6.01086
G0 F4800 X109.37 Y101.253
;TYPE:WALL-OUTER
G1 F600 Z0.2
G1 F1800 X109.117 Y101.057 E6.02291
G1 X108.935 Y100.823 E6.03407
G1 X108.904 Y100.77 E6.03638
G1 X108.786 Y100.474 E6.04838
G1 X108.748 Y100.168 E6.05999
G1 X108.789 Y99.842 E6.07236
G1 X108.914 Y99.538 E6.08473
G1 X109.108 Y99.285 E6.09674
G1 X109.368 Y99.084 E6.10911
G1 X109.677 Y98.955 E6.12171
G1 X110 Y98.915 E6.13397
G1 X110.325 Y98.956 E6.1463
G1 X110.629 Y99.081 E6.15867
G1 X110.882 Y99.275 E6.17068
G1 X111.086 Y99.538 E6.18321
G1 X111.211 Y99.841 E6.19555
G1 X111.252 Y100.166 E6.20788
G1 X111.215 Y100.47 E6.21941
G1 X111.088 Y100.794 E6.23251
G1 X110.891 Y101.049 E6.24464
G1 X110.629 Y101.253 E6.25714
G1 X110.326 Y101.378 E6.26948
G1 X110 Y101.419 E6.28185
G1 X109.675 Y101.378 E6.29418
G1 X109.37 Y101.253 E6.30659
G0 F4800 X109.212 Y101.131
G0 X109.127 Y101.669
;TYPE:WALL-INNER
G1 F1800 X108.776 Y101.398 E6.32484
G1 X108.557 Y101.117 E6.33951
G1 X108.462 Y100.954 E6.34727
G1 F1760.9 X108.294 Y100.591 E6.3641
G1 F1723.4 X108.259 Y100.168 E6.38235
G1 X108.293 Y99.761 E6.39991
G1 F1743.6 X108.504 Y99.286 E6.42199
G1 F1782 X108.768 Y98.944 E6.43995
G1 F1800 X109.126 Y98.665 E6.45863
G1 X109.553 Y98.488 E6.47766
G1 X110 Y98.437 E6.49618
G1 X110.444 Y98.488 E6.51457
G1 X110.872 Y98.664 E6.53362
G1 X111.223 Y98.935 E6.55187
G1 F1782 X111.496 Y99.285 E6.57032
G1 F1743.6 X111.707 Y99.762 E6.59249
G1 F1723.4 X111.742 Y100.166 E6.60992
G1 X111.706 Y100.587 E6.62808
G1 F1740.2 X111.495 Y101.048 E6.64967
G1 F1782 X111.233 Y101.39 E6.66758
G1 F1800 X110.873 Y101.67 E6.68635
G1 X110.448 Y101.845 E6.70527
G1 X110 Y101.898 E6.72384
G1 X109.555 Y101.846 E6.74228
G1 X109.127 Y101.669 E6.76134
;;retract;;
G1 F1500 E6.20134
G1 F2400 X108.557 Y101.117 E6.11094
G1 X108.462 Y100.954 E6.08951
G1 X108.294 Y100.591 E6.04402
G1 X108.259 Y100.168 E5.99568
G1 X108.275 Y99.973 E5.97334
G1 F1500 E5.96134
G1 F600 Z0.4
G0 F4800 X109.004 Y101.827 Z0.4
G0 X108.269 Y101.03
G0 X108.02 Y100.568
G0 X107.939 Y101.1
G0 X107.954 Y119.43
G0 X108.017 Y119.728
G0 X108.377 Y119.039
G1 F1500 E6.76134
G0 F4800 X108.914 Y119.454
;TYPE:WALL-OUTER
G1 F600 Z0.2
G1 F1800 X109.108 Y119.201 E6.77334
G1 X109.368 Y119 E6.78571
G1 X109.677 Y118.871 E6.79832
G1 X110 Y118.831 E6.81057
G1 X110.325 Y118.872 E6.82291
G1 X110.629 Y118.997 E6.83528
G1 X110.882 Y119.191 E6.84728
G1 X111.086 Y119.454 E6.85981
G1 X111.211 Y119.758 E6.87219
G1 X111.252 Y120.082 E6.88448
G1 X111.215 Y120.387 E6.89605
G1 X111.085 Y120.713 E6.90926
G1 X110.892 Y120.965 E6.92121
G1 X110.629 Y121.169 E6.93374
G1 X110.326 Y121.294 E6.94608
G1 X110 Y121.335 E6.95845
G1 X109.675 Y121.294 E6.97078
G1 X109.37 Y121.169 E6.98319
G1 X109.117 Y120.973 E6.99524
G1 X108.915 Y120.713 E7.00764
G1 X108.786 Y120.391 E7.0207
G1 X108.748 Y120.084 E7.03234
G1 X108.789 Y119.759 E7.04467
G1 X108.914 Y119.454 E7.05708
G0 F4800 X109.036 Y119.295
G0 X108.505 Y119.201
;TYPE:WALL-INNER
G1 F1782 X108.768 Y118.86 E7.07499
G1 F1800 X109.126 Y118.581 E7.09367
G1 X109.553 Y118.404 E7.11269
G1 X110 Y118.353 E7.13121
G1 X110.444 Y118.404 E7.14961
G1 X110.872 Y118.58 E7.16865
G1 X111.223 Y118.851 E7.18691
G1 F1782 X111.494 Y119.199 E7.20524
G1 F1743.6 X111.707 Y119.676 E7.22744
G1 F1723.4 X111.742 Y120.082 E7.24496
G1 X111.707 Y120.501 E7.26303
G1 F1740.2 X111.494 Y120.967 E7.28485
G1 F1782 X111.232 Y121.306 E7.30266
G1 F1800 X110.874 Y121.585 E7.32134
G1 X110.448 Y121.761 E7.34031
G1 X110 Y121.814 E7.35888
G1 X109.555 Y121.762 E7.37732
G1 X109.127 Y121.585 E7.39638
G1 X108.776 Y121.314 E7.41464
G1 F1782 X108.511 Y120.974 E7.43256
G1 F1740.2 X108.295 Y120.511 E7.45431
G1 F1723.4 X108.259 Y120.084 E7.47273
G1 X108.293 Y119.679 E7.4902
G1 F1743.6 X108.505 Y119.201 E7.51242
;;retract;;
G1 F1500 E6.95242
G1 F2400 X109.126 Y118.581 E6.85244
G1 X109.553 Y118.404 E6.79977
G1 X110 Y118.353 E6.74859
G1 X110.211 Y118.377 E6.72442
G1 F1500 E6.71242
G1 F600 Z0.4
G0 F4800 X108.347 Y119.078 Z0.4
G0 X107.959 Y120.748
G0 X107.954 Y139.345
G0 X108.017 Y139.644
G0 X108.16 Y139.423
G1 F1500 E7.51242
G0 F4800 X108.789 Y139.675
;TYPE:WALL-OUTER
G1 F600 Z0.2
G1 F1800 X108.914 Y139.371 E7.52479
G1 X109.108 Y139.118 E7.5368
G1 X109.368 Y138.917 E7.54917
G1 X109.677 Y138.788 E7.56178
G1 X110 Y138.748 E7.57403
G1 X110.325 Y138.789 E7.58636
G1 X110.629 Y138.914 E7.59873
G1 X110.882 Y139.108 E7.61074
G1 X111.086 Y139.371 E7.62327
G1 X111.211 Y139.674 E7.63561
G1 X111.252 Y139.999 E7.64794
G1 X111.25 Y140.028 E7.64903
G1 X111.215 Y140.304 E7.65951
G1 X111.085 Y140.63 E7.67272
G1 X110.892 Y140.882 E7.68467
G1 X110.628 Y141.087 E7.69725
G1 X110.305 Y141.214 E7.71032
G1 X110 Y141.252 E7.72189
G1 X109.675 Y141.211 E7.73422
G1 X109.37 Y141.086 E7.74663
G1 X109.117 Y140.89 E7.75868
G1 X108.915 Y140.63 E7.77108
G1 X108.786 Y140.308 E7.78414
G1 X108.748 Y140.001 E7.79578
G1 X108.789 Y139.675 E7.80815
G0 F4800 X108.865 Y139.49
G0 X108.293 Y139.594
;TYPE:WALL-INNER
G1 F1723.4 X108.259 Y140.001 E7.82571
G1 F1678 X108.299 Y140.477 E7.8468
G1 F1500 X108.449 Y140.973 E7.87239
G1 F1300.7 X108.678 Y141.303 E7.89527
G1 F1223.9 X109.133 Y141.653 E7.93002
G1 X107.847 Y141.653 E8.00787
G1 X107.847 Y141.289 E8.0299
G1 F1314.2 X107.797 Y140.935 E8.05006
G1 F1523.1 X107.754 Y140.441 E8.07418
G1 F1684.3 X107.742 Y140.001 E8.09354
G1 F1687.5 X107.752 Y139.605 E8.11093
G1 F1723.4 X107.731 Y139.071 E8.1339
G1 F1800 X107.731 Y121.018 E8.87695
G1 F1720.1 X107.754 Y120.524 E8.89825
G1 F1684.3 X107.742 Y120.084 E8.91762
G1 F1687.5 X107.752 Y119.689 E8.93496
G1 F1723.4 X107.731 Y119.156 E8.95789
G1 F1800 X107.731 Y101.101 E9.70103
G1 F1720.1 X107.754 Y100.607 E9.72233
G1 F1684.3 X107.742 Y100.168 E9.74164
G1 F1687.5 X107.752 Y99.772 E9.75904
G1 F1723.4 X107.731 Y99.238 E9.78201
G1 F1800 X107.731 Y81.185 E10.52506
G1 F1720.1 X107.754 Y80.691 E10.54636
G1 F1684.3 X107.742 Y80.251 E10.56572
G1 F1687.5 X107.752 Y79.855 E10.58311
G1 F1723.4 X107.731 Y79.321 E10.60609
G1 F1800 X107.731 Y78.231 E10.65095
G1 X109.119 Y78.231 E10.70808
G1 F1958.2 X109.583 Y78.191 E10.7257
G1 F2205.4 X110 Y78.179 E10.73971
G1 F2216.4 X110.379 Y78.19 E10.75239
G1 F1962.6 X110.879 Y78.231 E10.77133
G1 F1800 X112.27 Y78.231 E10.82858
G1 X112.27 Y78.775 E10.85097
G1 X112.27 Y79.32 E10.8734
G1 F1723.4 X112.248 Y79.854 E10.89638
G1 F1687.5 X112.259 Y80.249 E10.91373
G1 F1684.3 X112.246 Y80.687 E10.933
G1 F1720.1 X112.27 Y81.183 E10.95439
G1 F1800 X112.27 Y99.237 E11.69748
G1 F1723.4 X112.248 Y99.771 E11.72046
G1 F1687.5 X112.259 Y100.166 E11.73781
G1 F1684.3 X112.246 Y100.603 E11.75704
G1 F1720.1 X112.27 Y101.098 E11.77838
G1 F1800 X112.27 Y119.154 E12.52156
G1 F1723.4 X112.248 Y119.687 E12.54449
G1 F1687.5 X112.259 Y120.082 E12.56184
G1 F1684.3 X112.246 Y120.52 E12.58111
G1 F1720.1 X112.27 Y121.016 E12.6025
G1 F1800 X112.27 Y139.07 E13.34559
G1 F1723.4 X112.248 Y139.604 E13.36857
G1 F1687.5 X112.259 Y139.999 E13.38592
G1 F1684.3 X112.246 Y140.437 E13.40519
G1 F1523.1 X112.203 Y140.933 E13.42941
G1 F1314.2 X112.153 Y141.289 E13.44968
G1 F1223.9 X112.153 Y141.653 E13.47171
G1 X110.871 Y141.653 E13.54931
G1 X111.33 Y141.294 E13.58459
G1 F1242.7 X111.529 Y141.012 E13.60516
G1 F1423.3 X111.702 Y140.479 E13.63433
G1 F1678 X111.742 Y139.999 E13.6556
G1 F1723.4 X111.707 Y139.595 E13.67303
G1 F1743.6 X111.496 Y139.118 E13.69519
G1 F1782 X111.223 Y138.768 E13.71365
G1 F1800 X110.872 Y138.497 E13.7319
G1 X110.444 Y138.321 E13.75095
G1 X110 Y138.27 E13.76934
G1 X109.553 Y138.321 E13.78786
G1 X109.126 Y138.498 E13.80689
G1 X108.768 Y138.777 E13.82557
G1 F1782 X108.504 Y139.119 E13.84353
G1 F1743.6 X108.293 Y139.594 E13.86561
G0 F4800 X108.118 Y139.57
G0 X108.185 Y140.478
G0 X108.372 Y140.937
G0 X108.719 Y141.364
G0 X109.17 Y141.651
G0 X109.638 Y141.729
G1 F536.1 X110 Y141.75 E13.88232
G1 F533.2 X110.395 Y141.727 E13.90064
;;retract;;
G1 F1500 E13.34064
G1 F2400 X110 Y141.75
G1 X110.395 Y141.727 E13.29561
G1 F1500 E13.10064
G1 F600 Z0.4
G0 F4800 X110.83 Y141.651 Z0.4
G0 X111.281 Y141.364
G0 X111.67 Y140.832
G0 X111.815 Y140.478
G0 X112.047 Y139.342
G0 X112.041 Y120.742
G0 X111.981 Y120.481
G0 X111.288 Y121.527
G0 X110.239 Y121.965
G0 X109.514 Y121.89
G1 F1500 E13.90064
G0 F4800 X109.429 Y122.208
;TYPE:SKIN
G1 F600 Z0.2
G1 F1800 X108.906 Y121.993 E13.92237
G1 X108.447 Y121.642 E13.94456
G1 X108.189 Y121.306 E13.96084
G1 X108.189 Y138.726 E14.63003
G1 X108.558 Y138.358 E14.65005
G1 X108.899 Y138.093 E14.66664
G1 X109.43 Y137.875 E14.6887
G1 X109.999 Y137.803 E14.71073
G1 X110.57 Y137.875 E14.73284
G1 X111.092 Y138.089 E14.75451
G1 X111.549 Y138.438 E14.7766
G1 X111.811 Y138.779 E14.79312
G1 X111.811 Y121.309 E15.46424
G1 X111.724 Y121.446 E15.47047
G1 X111.443 Y121.724 E15.48566
G1 X111.101 Y121.99 E15.5023
G1 X110.57 Y122.208 E15.52435
G1 X110.001 Y122.28 E15.54638
G1 X109.429 Y122.208 E15.56853
G0 F4800 X109.514 Y121.89
G0 X110.058 Y121.953
G0 X110.588 Y121.855
G0 X111.178 Y121.536
G0 X111.509 Y121.963
G1 F1800 X111.58 Y122.033 E15.57236
G1 X111.122 Y122.229
G1 X111.58 Y122.687 E15.59724
G1 X111.58 Y123.34
G1 X110.66 Y122.42 E15.64722
G1 X110.085 Y122.499
G1 X111.58 Y123.994 E15.72844
G1 X111.58 Y124.647
G1 X109.361 Y122.429 E15.84897
G1 X108.419 Y122.14
G1 X111.58 Y125.3 E16.02067
G1 X111.58 Y125.954
G1 X108.419 Y122.794 E16.19238
G1 X108.419 Y123.447
G1 X111.58 Y126.607 E16.36408
G1 X111.58 Y127.26
G1 X108.419 Y124.1 E16.53578
G1 X108.419 Y124.754
G1 X111.58 Y127.914 E16.70748
